icons/footer-bank-1.svg

<svg width="25" height="25" viewBox="0 0 25 25" fill="none" xmlns="http://www.w3.org/2000/svg">
<path opacity="0.5" d="M24.9975 12.4998C24.9977 11.7491 24.9308 10.9999 24.7975 10.2611L22.1063 12.2436C22.1063 12.3286 22.1063 12.4148 22.1063 12.4936C22.1092 14.6446 21.3915 16.7346 20.0678 18.43C18.7441 20.1254 16.8906 21.3286 14.8032 21.8475C12.7157 22.3664 10.5146 22.1711 8.55107 21.2928C6.58758 20.4145 4.97488 18.9037 3.97034 17.0017C2.96581 15.0997 2.62734 12.916 3.00895 10.7992C3.39057 8.68229 4.47027 6.75426 6.07575 5.32276C7.68123 3.89126 9.71995 3.03879 11.8665 2.90142C14.0131 2.76404 16.1439 3.34967 17.9188 4.56483L20.35 2.77233C18.1439 0.992026 15.3981 0.0144979 12.5632 0.000159997C9.72838 -0.0141779 6.97285 0.935526 4.74881 2.69343C2.52477 4.45133 0.964322 6.91301 0.323531 9.67453C-0.317261 12.436 -0.000334978 15.3334 1.2223 17.891C2.44494 20.4487 4.50067 22.5148 7.05215 23.7504C9.60363 24.9859 12.4993 25.3174 15.264 24.6906C18.0287 24.0637 20.4983 22.5157 22.2674 20.3006C24.0364 18.0854 25 15.3347 25 12.4998H24.9975Z" fill="white"/>
<path d="M22.3888 4.85742C22.983 5.62506 23.4864 6.45895 23.8888 7.34242L12.4975 15.7374L7.73877 12.7537V9.16492L12.4975 12.1474L22.3888 4.85742Z" fill="white"/>
</svg>

<svg xmlns="http://www.w3.org/2000/svg" width="25" height="25" fill="none"><path fill="#fff" d="M24.998 12.5c0-.75-.067-1.5-.2-2.239l-2.692 1.983v.25a9.625 9.625 0 1 1-4.187-7.93l2.431-1.792A12.5 12.5 0 1 0 25 12.5z" opacity=".5"/><path fill="#fff" d="M22.389 4.857a12.6 12.6 0 0 1 1.5 2.485l-11.391 8.395-4.76-2.983v-3.59l4.76 2.983z"/></svg>
